X: 786
T: Peter Francisco
B: jims roots
M:C|
L:1/8
Q: 1/4=100
K:D
V:1 
FE |: "D"D2D2 DFAB | "C"=c2 cA GECG, | "D"D3E DFAB | "A"dAec "D"d4 :|
|:"D"dcde fefg | "A"afaf gecA | "D"dcde fefg | "A"a^gab a2 (3ABc |
"D"dcde fefg | "A"afaf gecA  | "D"dfec d2AF|[1 "A"GBAF "D"D2 (3ABc :|
V:2 "A"GBAF "D"D2 |
% abcbook-tune_id 6298c2794ec126f133ef6f1a


% abcbook-boost 0
% abcbook-tablature 
% abcbook-transpose 
% abcbook-lastupdated 1654178426458
% abcbook-soundfonts 
% abcbook-repeats 1


